inst/assets/svg/wi-moon-alt-waning-crescent-6.svg

<?xml version="1.0" encoding="UTF-8"?>
<svg xmlns="http://www.w3.org/2000/svg" xmlns:xlink="http://www.w3.org/1999/xlink" width="30pt" height="30pt" viewBox="0 0 30 30" version="1.1">
<g id="surface351">
<path style=" stroke:none;fill-rule:nonzero;fill:rgb(0%,0%,0%);fill-opacity:1;" d="M 3.738281 14.441406 C 3.738281 12.921875 4.039063 11.460938 4.628906 10.070313 C 5.21875 8.679688 6.03125 7.488281 7.03125 6.480469 C 8.03125 5.46875 9.230469 4.671875 10.621094 4.078125 C 12.011719 3.488281 13.460938 3.191406 14.988281 3.191406 C 16.519531 3.191406 17.96875 3.488281 19.359375 4.078125 C 20.75 4.671875 21.949219 5.480469 22.960938 6.480469 C 23.96875 7.480469 24.769531 8.679688 25.359375 10.070313 C 25.949219 11.460938 26.25 12.910156 26.25 14.441406 C 26.25 15.96875 25.949219 17.421875 25.359375 18.808594 C 24.769531 20.199219 23.960938 21.398438 22.960938 22.410156 C 21.960938 23.421875 20.761719 24.21875 19.359375 24.808594 C 17.960938 25.398438 16.511719 25.699219 14.988281 25.699219 C 13.46875 25.699219 12.011719 25.398438 10.621094 24.808594 C 9.230469 24.21875 8.039063 23.410156 7.03125 22.410156 C 6.019531 21.410156 5.21875 20.210938 4.628906 18.808594 C 4.039063 17.410156 3.738281 15.96875 3.738281 14.441406 Z M 4.941406 14.441406 C 4.941406 16.921875 5.738281 19.101563 7.351563 20.96875 C 8.960938 22.839844 10.96875 23.980469 13.378906 24.378906 C 12.371094 23.878906 11.519531 23.28125 10.820313 22.558594 C 10.121094 21.839844 9.570313 21.058594 9.191406 20.191406 C 8.808594 19.320313 8.53125 18.421875 8.359375 17.488281 C 8.191406 16.558594 8.101563 15.539063 8.101563 14.429688 C 8.101563 12.320313 8.601563 10.371094 9.589844 8.589844 C 10.578125 6.808594 11.960938 5.429688 13.710938 4.46875 C 12.078125 4.679688 10.601563 5.238281 9.261719 6.171875 C 7.921875 7.101563 6.871094 8.300781 6.101563 9.761719 C 5.328125 11.21875 4.941406 12.769531 4.941406 14.441406 Z M 4.941406 14.441406 "/>
</g>
</svg>

<?xml version="1.0" encoding="utf-8"?>
<!-- Generator: Adobe Illustrator 22.0.1, SVG Export Plug-In . SVG Version: 6.00 Build 0)  -->
<svg version="1.1" id="Layer_1" xmlns="http://www.w3.org/2000/svg" xmlns:xlink="http://www.w3.org/1999/xlink" x="0px" y="0px"
	 viewBox="0 0 30 30" style="enable-background:new 0 0 30 30;" xml:space="preserve">
<path d="M3.74,14.44c0-1.52,0.3-2.98,0.89-4.37s1.4-2.58,2.4-3.59s2.2-1.81,3.59-2.4s2.84-0.89,4.37-0.89s2.98,0.3,4.37,0.89
	s2.59,1.4,3.6,2.4s1.81,2.2,2.4,3.59s0.89,2.84,0.89,4.37s-0.3,2.98-0.89,4.37s-1.4,2.59-2.4,3.6s-2.2,1.81-3.6,2.4
	s-2.85,0.89-4.37,0.89s-2.98-0.3-4.37-0.89s-2.58-1.4-3.59-2.4s-1.81-2.2-2.4-3.6S3.74,15.97,3.74,14.44z M4.94,14.44
	c0,2.48,0.8,4.66,2.41,6.53s3.62,3.01,6.03,3.41c-1.01-0.5-1.86-1.1-2.56-1.82s-1.25-1.5-1.63-2.37s-0.66-1.77-0.83-2.7
	s-0.26-1.95-0.26-3.06c0-2.11,0.5-4.06,1.49-5.84s2.37-3.16,4.12-4.12c-1.63,0.21-3.11,0.77-4.45,1.7S6.87,8.3,6.1,9.76
	S4.94,12.77,4.94,14.44z"/>
</svg>
